packages/bezier-icons/icons/webhook.svg

<svg width="24" height="24" viewBox="0 0 24 24" fill="none" xmlns="http://www.w3.org/2000/svg">
<path fill-rule="evenodd" clip-rule="evenodd" d="M8.75 16.01C8.75 15.6458 8.6525 15.3043 8.48219 15.01L10.8212 10.9581L9.95489 10.4582C8.16174 9.42353 7.54706 7.12938 8.58215 5.33632C9.61805 3.54245 11.9116 2.92769 13.705 3.96335L14.7052 2.23138C11.955 0.643276 8.43838 1.58589 6.85012 4.33629C5.43327 6.79065 6.03188 9.85664 8.13238 11.6155L6.75016 14.01H6.75C5.646 14.01 4.75 14.906 4.75 16.01C4.75 17.114 5.646 18.01 6.75 18.01C7.854 18.01 8.75 17.114 8.75 16.01ZM11.8301 5.21118C12.9341 5.21118 13.8301 6.10618 13.8301 7.21118C13.8301 7.57528 13.7326 7.91675 13.5624 8.21092L14.9446 10.6048C17.5183 9.66566 20.4729 10.6802 21.8892 13.1346C23.4771 15.8845 22.5349 19.4012 19.7854 20.9896L18.785 19.2578C20.5782 18.2218 21.1928 15.9281 20.157 14.1345C19.1224 12.3414 16.8282 11.7267 15.0351 12.7618L14.1692 13.2617L11.8305 9.21118C11.8304 9.21118 11.8302 9.21118 11.8301 9.21118C10.7261 9.21118 9.83008 8.31518 9.83008 7.21118C9.83008 6.10618 10.7261 5.21118 11.8301 5.21118ZM16.9102 14.01C16.1697 14.01 15.5235 14.4124 15.1778 15.01H10.5V16.01C10.5 18.0807 8.82071 19.76 6.75 19.76C4.67866 19.76 3 18.0811 3 16.01H1C1 19.1856 3.57403 21.76 6.75 21.76C9.58421 21.76 11.9399 19.7087 12.4133 17.01H15.1778C15.5235 17.6077 16.1697 18.01 16.9102 18.01C18.0142 18.01 18.9102 17.114 18.9102 16.01C18.9102 14.906 18.0142 14.01 16.9102 14.01Z" fill="#313234"/>
</svg>

<svg xmlns="http://www.w3.org/2000/svg" width="24" height="24" fill="none" viewBox="0 0 24 24"><path fill="#313234" fill-rule="evenodd" d="M8.75 16.01a2 2 0 0 0-.268-1l2.34-4.052-.867-.5a3.75 3.75 0 0 1 3.75-6.495l1-1.732a5.75 5.75 0 0 0-6.573 9.385L6.75 14.01a2 2 0 1 0 2 2m3.08-10.799a2 2 0 0 1 1.732 3l1.383 2.394a5.752 5.752 0 0 1 4.84 10.385l-1-1.732a3.75 3.75 0 0 0-3.75-6.496l-.866.5-2.338-4.05a2 2 0 0 1 0-4m5.08 8.799a2 2 0 0 0-1.732 1H10.5v1a3.75 3.75 0 0 1-7.5 0H1a5.75 5.75 0 0 0 11.413 1h2.765a1.999 1.999 0 0 0 3.732-1 2 2 0 0 0-2-2" clip-rule="evenodd"/></svg>
